X: 1
T: Murphy's
M: 4/4
L: 1/8
R: hornpipe
K: Gmaj
(3DEF|GABG EF (3GFE|ABcA FGAF|GBdg ecAG|FGAF DEFD|
GABG EFGE|ABcA FGAF|GBdg ecAF|G2GF G2:|
|:Bc|dedc BcdB|efg ed cdef|~g3d ecAG|FGAF DE (3FED|
GABG EF (3GAG|ABcA FGAF|GBdg ecAF|G2GF G2:|
